src/assets/duotone/Discover1.svg

<svg width="24" height="24" viewBox="0 0 24 24"  xmlns="http://www.w3.org/2000/svg">
<path opacity="0.4" d="M12 22C17.5228 22 22 17.5228 22 12C22 6.47715 17.5228 2 12 2C6.47715 2 2 6.47715 2 12C2 17.5228 6.47715 22 12 22Z" />
<path d="M14.3251 14.3265C16.2074 12.4442 16.6918 9.87676 15.407 8.59195C14.1221 7.30713 11.5547 7.7915 9.67238 9.67381C7.79007 11.5561 7.30571 14.1236 8.59052 15.4084C9.87533 16.6932 12.4428 16.2088 14.3251 14.3265Z" />
</svg>

<?xml version="1.0" encoding="UTF-8"?>
<svg width="24" height="24" viewBox="0 0 24 24" xmlns="http://www.w3.org/2000/svg">
 <path d="m12 22c5.5228 0 10-4.4772 10-10 0-5.5228-4.4772-10-10-10-5.5228 0-10 4.4772-10 10 0 5.5228 4.4772 10 10 10z" opacity=".4"/>
 <path d="m14.325 14.326c1.8823-1.8823 2.3667-4.4497 1.0819-5.7346-1.2849-1.2848-3.8523-0.80045-5.7346 1.0819-1.8823 1.8823-2.3667 4.4498-1.0819 5.7346s3.8523 0.8004 5.7346-1.0819z"/>
</svg>
